svgs/sharp-light/e.svg

<svg xmlns="http://www.w3.org/2000/svg" viewBox="0 0 320 512"><!--! Font Awesome Pro 6.6.0 by @fontawesome - https://fontawesome.com License - https://fontawesome.com/license (Commercial License) Copyright 2024 Fonticons, Inc. --><path d="M16 32L0 32 0 48 0 256 0 464l0 16 16 0 288 0 16 0 0-32-16 0L32 448l0-176 208 0 16 0 0-32-16 0L32 240 32 64l272 0 16 0 0-32-16 0L16 32z"/></svg>

<svg xmlns="http://www.w3.org/2000/svg" viewBox="0 0 320 512"><!--! Font Awesome Pro 6.5.2 by @fontawesome - https://fontawesome.com License - https://fontawesome.com/license (Commercial License) Copyright 2024 Fonticons, Inc. --><path d="M16 32H0V48 256 464v16H16 304h16V448H304 32V272H240h16V240H240 32V64H304h16V32H304 16z"/></svg>
